img/icons/mime/large/pdf.svg

<svg height="140.9" width="125.3" xmlns="http://www.w3.org/2000/svg" xmlns:xlink="http://www.w3.org/1999/xlink"><linearGradient id="a" gradientTransform="matrix(.939922 0 0 .896911 -12.081733 -3.352424)" gradientUnits="userSpaceOnUse" x1="24" x2="73" y1="16.4" y2="73.4"><stop offset="0" stop-color="#fff"/><stop offset="1" stop-color="#fff" stop-opacity="0"/></linearGradient><rect fill="none" height="133.4" rx="22.9" stroke="#000" stroke-linejoin="round" stroke-opacity=".5" stroke-width="7.5" width="117.8" x="3.8" y="3.8"/><rect fill="#bab5ab" height="133.4" rx="22.9" stroke="#000" stroke-width="3.8" width="117.8" x="3.6" y="3.7"/><path d="m100.3 132.6h-75.7c-11.6 0-17.3-5.7-17.3-17.4 0 0 27.6-66.5 110.4-76.6v76.6c0 11.7-5.7 17.4-17.4 17.4z" fill="#fff" fill-opacity=".3"/><path d="m106.9 98.4h-10c-1.5 0-2.8.2-3.7.5-.5.2-.9.3-1.2.5s-.7.5-1 .8c-.9.8-1.5 1.8-1.9 3l-.3.9v1.1.9h18.1v5.1h-18.1v13h-6.8v-15.6c0-1.3.1-2.5.2-3.5 0-1.1.2-2 .4-2.8.5-2.5 1.7-4.6 3.5-6.2 1.1-1.1 2.5-1.8 4.1-2.3s3.6-.7 6-.7h10.7zm-57.4-5.3h16.5c4.2 0 7.4 1.3 9.6 4 2.1 2.6 3.2 6.5 3.2 11.5s-1.1 8.8-3.2 11.5c-2.2 2.7-5.4 4.1-9.6 4.1h-16.5zm6.5 25.8h7.8c2.7 0 4.6-.9 5.8-2.6 1.3-1.7 1.9-4.2 1.9-7.7 0-3.4-.6-6-1.8-7.7-1.2-1.6-3.1-2.5-5.9-2.5h-7.8zm-31.3-5.8v11.1h-6.7v-31.1h18.7c2.9 0 5.1.8 6.8 2.5s2.5 4.2 2.5 7.5c0 3.2-.8 5.7-2.5 7.4s-3.9 2.6-6.8 2.6zm0-14.7v9.3h8.9c1.5 0 2.7-.3 3.6-1.1 1-.8 1.4-1.9 1.4-3.5s-.4-2.8-1.4-3.5c-.9-.8-2.1-1.2-3.6-1.2z" fill="#fff"/><path d="m107.6 99.1h-10c-1.6 0-2.8.2-3.7.5-.5.2-.9.3-1.2.5-.4.2-.7.5-1 .8-.9.8-1.5 1.8-1.9 3l-.3.9-.1 1.1v.8h18.2v5.2h-18.2v13h-6.7v-15.6c0-1.4.1-2.5.1-3.6.1-1 .2-1.9.4-2.7.6-2.5 1.8-4.6 3.6-6.3 1.1-1 2.4-1.8 4-2.2 1.6-.5 3.7-.8 6.1-.8h10.7zm-57.4-5.4h16.5c4.2 0 7.3 1.4 9.5 4 2.2 2.7 3.3 6.6 3.3 11.6s-1.1 8.8-3.3 11.5c-2.1 2.7-5.3 4.1-9.5 4.1h-16.5zm6.4 25.8h7.9c2.6 0 4.6-.8 5.8-2.5 1.3-1.7 1.9-4.3 1.9-7.7s-.6-6-1.8-7.7-3.1-2.5-5.9-2.5h-7.9zm-31.2-5.8v11.2h-6.7v-31.2h18.7c2.8 0 5.1.9 6.8 2.6s2.5 4.2 2.5 7.4c0 3.3-.8 5.8-2.5 7.5s-4 2.5-6.8 2.5zm0-14.6v9.3h8.9c1.5 0 2.7-.4 3.6-1.1.9-.8 1.4-2 1.4-3.6 0-1.5-.5-2.7-1.4-3.4-.9-.8-2.1-1.2-3.6-1.2z"/><path d="m62.2 14.6c16.2.1-18.9 77.6-32.2 67.3-11.6-15.7 74-32 66.6-21.9-15.1 17.5-44.7-45.4-34.4-45.4z" fill="#fff" stroke="#df421e" stroke-width="5.9"/><path d="m24.6 7.3h75.7c11.7 0 17.4 5.7 17.4 17.4 0 0-79.3.9-110.4 91.3v-91.3c0-10.3 7-17.4 17.3-17.4z" fill="url(#a)"/></svg>

<svg xmlns:svg="http://www.w3.org/2000/svg" xmlns="http://www.w3.org/2000/svg" xmlns:xlink="http://www.w3.org/1999/xlink" id="svg1" width="125.3" height="140.9" version="1">
<style>
.s0{
  stop-color:#46a046;
  stop-opacity:1;
}
.s1{
  stop-color:#df421e;
  stop-opacity:1;
}
.s2{
  stop-color:#ada7c8;
  stop-opacity:1;
}
.s3{
  stop-color:#eed680;
  stop-opacity:1;
}

</style>  <metadata id="metadata15"/>
  <defs id="defs3">
    <linearGradient id="linearGradient3587">
      <stop id="stop3589" offset="0" style="stop-color:#efe0cd;stop-opacity:0.6"/>
      <stop id="stop3591" offset="1" style="stop-color:#cececd;stop-opacity:0.2"/>
    </linearGradient>
    <linearGradient id="linearGradient2832">
      <stop offset="0" id="stop2834" style="stop-color:#ffffff;stop-opacity:1"/>
      <stop offset="1" id="stop2836" style="stop-color:#ffffff;stop-opacity:0"/>
    </linearGradient>
    <linearGradient id="linearGradient839">
      <stop offset="0" id="stop840" class="s0"/>
      <stop offset="0.4" id="stop841" class="s1"/>
      <stop offset="0.7" id="stop842" class="s2"/>
      <stop offset="1" id="stop843" class="s3"/>
    </linearGradient>
    <linearGradient xlink:href="#linearGradient839" id="linearGradient836" x1="0" y1="0.5" x2="1" y2="0.5"/>
    <linearGradient xlink:href="#linearGradient2832" id="linearGradient2830" gradientTransform="matrix(0.939922,0,0,0.896911,-12.081733,-3.3524237)" x1="24" y1="16.4" x2="73" y2="73.4" gradientUnits="userSpaceOnUse"/>
    <linearGradient y2="93.7" x2="107.3" y1="124.3" x1="111.3" gradientTransform="matrix(0.777129,0,0,0.894628,-162.4688,12.76856)" gradientUnits="userSpaceOnUse" id="linearGradient1407" xlink:href="#linearGradient1700"/>
    <linearGradient y2="93.7" x2="107.3" y1="124.3" x1="111.3" gradientTransform="matrix(0.777129,0,0,0.894628,-2.922179,10.43077)" gradientUnits="userSpaceOnUse" id="linearGradient1390" xlink:href="#linearGradient1700"/>
    <linearGradient id="linearGradient1350">
      <stop offset="0" id="stop1352" class="s0"/>
      <stop offset="0.4" id="stop1354" class="s1"/>
      <stop offset="0.7" id="stop1356" class="s2"/>
      <stop offset="1" id="stop1358" class="s3"/>
    </linearGradient>
    <linearGradient xlink:href="#linearGradient839" id="linearGradient1360" x1="0" y1="0.5" x2="1" y2="0.5"/>
    <linearGradient xlink:href="#linearGradient1700" id="linearGradient1362" gradientTransform="matrix(0.870364,0,0,1.001961,4.612015,4.886798)" x1="123.5" y1="121.7" x2="128.7" y2="88" gradientUnits="userSpaceOnUse"/>
    <linearGradient xlink:href="#linearGradient839" id="linearGradient1363" x1="0" y1="0.5" x2="1" y2="0.5"/>
    <linearGradient id="linearGradient1353">
      <stop offset="0" id="stop1355" class="s0"/>
      <stop offset="0.4" id="stop1357" class="s1"/>
      <stop offset="0.7" id="stop1359" class="s2"/>
      <stop offset="1" id="stop1361" class="s3"/>
    </linearGradient>
    <linearGradient id="linearGradient1700">
      <stop offset="0" id="stop1701" style="stop-color:#000000;stop-opacity:0.7"/>
      <stop offset="1" id="stop1702" style="stop-color:#000000;stop-opacity:0"/>
    </linearGradient>
    <linearGradient y2="0.5" x2="1" y1="0.5" x1="0" id="linearGradient1427" xlink:href="#linearGradient839"/>
    <linearGradient id="linearGradient1417">
      <stop id="stop1419" offset="0" class="s0"/>
      <stop id="stop1421" offset="0.4" class="s1"/>
      <stop id="stop1423" offset="0.7" class="s2"/>
      <stop id="stop1425" offset="1" class="s3"/>
    </linearGradient>
    <linearGradient xlink:href="#linearGradient839" id="linearGradient1381" x1="0" y1="0.5" x2="1" y2="0.5"/>
    <linearGradient id="linearGradient1371">
      <stop offset="0" id="stop1373" class="s0"/>
      <stop offset="0.4" id="stop1375" class="s1"/>
      <stop offset="0.7" id="stop1377" class="s2"/>
      <stop offset="1" id="stop1379" class="s3"/>
    </linearGradient>
  </defs>
  <rect id="rect834" width="117.8" height="133.4" x="3.8" y="3.8" ry="22.9" rx="22.9" style="fill:none;stroke-linejoin:round;stroke-opacity:0.5;stroke-width:7.5;stroke:#000"/>
  <rect id="rect828" width="117.8" height="133.4" x="3.6" y="3.7" ry="22.9" rx="22.9" style="fill:#bab5ab;stroke-width:3.8;stroke:#000"/>
  <path d="M100.3 132.6L24.6 132.6C13 132.6 7.3 126.9 7.3 115.2 7.3 115.2 34.9 48.7 117.7 38.6L117.7 115.2C117.7 126.9 112 132.6 100.3 132.6z" id="path2838" style="fill-opacity:0.3;fill:#fff"/>
  <path d="M106.9 98.4L96.9 98.4C95.4 98.4 94.1 98.6 93.2 98.9 92.7 99.1 92.3 99.2 92 99.4 91.7 99.6 91.3 99.9 91 100.2 90.1 101 89.5 102 89.1 103.2L88.8 104.1 88.8 105.2 88.8 106.1 106.9 106.1 106.9 111.2 88.8 111.2 88.8 124.2 82 124.2 82 108.6C82 107.3 82.1 106.1 82.2 105.1 82.2 104 82.4 103.1 82.6 102.3 83.1 99.8 84.3 97.7 86.1 96.1 87.2 95 88.6 94.3 90.2 93.8 91.8 93.3 93.8 93.1 96.2 93.1L106.9 93.1 106.9 98.4zM49.5 93.1L66 93.1C70.2 93.1 73.4 94.4 75.6 97.1 77.7 99.7 78.8 103.6 78.8 108.6 78.8 113.6 77.7 117.4 75.6 120.1 73.4 122.8 70.2 124.2 66 124.2L49.5 124.2 49.5 93.1zM56 118.9L63.8 118.9C66.5 118.9 68.4 118 69.6 116.3 70.9 114.6 71.5 112.1 71.5 108.6 71.5 105.2 70.9 102.6 69.7 100.9 68.5 99.3 66.6 98.4 63.8 98.4L56 98.4 56 118.9zM24.7 113.1L24.7 124.2 18 124.2 18 93.1 36.7 93.1C39.6 93.1 41.8 93.9 43.5 95.6 45.2 97.3 46 99.8 46 103.1 46 106.3 45.2 108.8 43.5 110.5 41.8 112.2 39.6 113.1 36.7 113.1L24.7 113.1zM24.7 98.4L24.7 107.7 33.6 107.7C35.1 107.7 36.3 107.4 37.2 106.6 38.2 105.8 38.6 104.7 38.6 103.1 38.6 101.5 38.2 100.3 37.2 99.6 36.3 98.8 35.1 98.4 33.6 98.4L24.7 98.4z" id="path1395" style="fill:#fff;font-family:Trek;font-size:40;stroke-width:1"/>
  <path d="M107.6 99.1L97.6 99.1C96 99.1 94.8 99.3 93.9 99.6 93.4 99.8 93 99.9 92.7 100.1 92.3 100.3 92 100.6 91.7 100.9 90.8 101.7 90.2 102.7 89.8 103.9L89.5 104.8 89.4 105.9 89.4 106.7 107.6 106.7 107.6 111.9 89.4 111.9 89.4 124.9 82.7 124.9 82.7 109.3C82.7 107.9 82.8 106.8 82.8 105.7 82.9 104.7 83 103.8 83.2 103 83.8 100.5 85 98.4 86.8 96.7 87.9 95.7 89.2 94.9 90.8 94.5 92.4 94 94.5 93.7 96.9 93.7L107.6 93.7 107.6 99.1zM50.2 93.7L66.7 93.7C70.9 93.7 74 95.1 76.2 97.7 78.4 100.4 79.5 104.3 79.5 109.3 79.5 114.3 78.4 118.1 76.2 120.8 74.1 123.5 70.9 124.9 66.7 124.9L50.2 124.9 50.2 93.7zM56.6 119.5L64.5 119.5C67.1 119.5 69.1 118.7 70.3 117 71.6 115.3 72.2 112.7 72.2 109.3 72.2 105.9 71.6 103.3 70.4 101.6 69.2 99.9 67.3 99.1 64.5 99.1L56.6 99.1 56.6 119.5zM25.4 113.7L25.4 124.9 18.7 124.9 18.7 93.7 37.4 93.7C40.2 93.7 42.5 94.6 44.2 96.3 45.9 98 46.7 100.5 46.7 103.7 46.7 107 45.9 109.5 44.2 111.2 42.5 112.9 40.2 113.7 37.4 113.7L25.4 113.7zM25.4 99.1L25.4 108.4 34.3 108.4C35.8 108.4 37 108 37.9 107.3 38.8 106.5 39.3 105.3 39.3 103.7 39.3 102.2 38.8 101 37.9 100.3 37 99.5 35.8 99.1 34.3 99.1L25.4 99.1z" id="path836" style="font-family:Trek;font-size:40;stroke-width:1"/>
  <path d="M62.2 14.6C78.4 14.7 43.3 92.2 30 81.9 18.4 66.2 104 49.9 96.6 60 81.5 77.5 51.9 14.6 62.2 14.6z" id="path847" style="fill:#fff;stroke-width:5.9;stroke:#df421e"/>
  <path d="M24.6 7.3L100.3 7.3C112 7.3 117.7 13 117.7 24.7 117.7 24.7 38.4 25.6 7.3 116L7.3 24.7C7.3 14.4 14.3 7.3 24.6 7.3z" id="rect2063" fill="url(#linearGradient2830)"/>
</svg>
